; generated by PrusaSlicer 2.0.0+ on 2019-10-25 at 21:37:21

; 

; external perimeters extrusion width = 0.45mm
; perimeters extrusion width = 0.45mm
; infill extrusion width = 0.45mm
; solid infill extrusion width = 0.45mm
; top infill extrusion width = 0.40mm
; first layer extrusion width = 0.42mm

M73 P0 R5
M73 Q0 S5
M201 X1000 Y1000 Z1000 E5000 ; sets maximum accelerations, mm/sec^2
M203 X200 Y200 Z12 E120 ; sets maximum feedrates, mm/sec
M204 P1250 R1250 T1250 ; sets acceleration (P, T) and retract acceleration (R), mm/sec^2
M205 X8.00 Y8.00 Z0.40 E1.50 ; sets the jerk limits, mm/sec
M205 S0 T0 ; sets the minimum extruding and travel feed rate, mm/sec
M107
M115 U3.8.0 ; tell printer latest fw version
G90 ; use absolute coordinates
M83 ; extruder relative mode
M104 S215 ; set extruder temp
M140 S60 ; set bed temp
M190 S60 ; wait for bed temp
M109 S215 ; wait for extruder temp
G28 W ; home all without mesh bed level
G80 ; mesh bed leveling
G1 Y-3.0 F1000.0 ; go outside print area
G92 E0.0
G1 X60.0 E9.0 F1000.0 ; intro line
M73 Q1 S5
M73 P1 R5
G1 X100.0 E12.5 F1000.0 ; intro line
G92 E0.0
M221 S95
M900 K30 ; Filament gcode
G21 ; set units to millimeters
G90 ; use absolute coordinates
M83 ; use relative distances for extrusion
;BEFORE_LAYER_CHANGE
G92 E0.0
;0.2


G1 E-0.80000 F2100.00000
G1 Z0.600 F10800.000
;AFTER_LAYER_CHANGE
;0.2
G1 X113.005 Y95.079
G1 Z0.200
G1 E0.80000 F2100.00000
M204 S1000
G1 F1200
G1 X114.287 Y93.709 E0.05882
G1 X115.136 Y92.960 E0.03549
G1 X116.651 Y91.863 E0.05869
G1 X117.572 Y91.322 E0.03348
G1 X119.265 Y90.529 E0.05860
G1 X120.267 Y90.173 E0.03334
G1 X122.082 Y89.710 E0.05873
G1 X123.129 Y89.548 E0.03323
G1 X125.002 Y89.434 E0.05883
G1 X126.871 Y89.548 E0.05869
G1 X127.923 Y89.711 E0.03340
G1 X129.741 Y90.175 E0.05881
G1 X130.798 Y90.556 E0.03524
G1 X132.438 Y91.327 E0.05684
G1 X133.408 Y91.902 E0.03534
G1 X134.921 Y93.005 E0.05871
G1 X136.291 Y94.287 E0.05882
G1 X137.040 Y95.136 E0.03549
G1 X138.137 Y96.651 E0.05869
G1 X138.678 Y97.572 E0.03348
G1 X139.471 Y99.265 E0.05860
G1 X139.827 Y100.267 E0.03334
G1 X140.290 Y102.082 E0.05873
G1 X140.452 Y103.129 E0.03323
G1 X140.566 Y105.002 E0.05883
G1 X140.452 Y106.871 E0.05869
G1 X140.289 Y107.923 E0.03340
G1 X139.825 Y109.741 E0.05881
G1 X139.444 Y110.798 E0.03524
G1 X138.673 Y112.438 E0.05684
G1 X138.098 Y113.408 E0.03534
G1 X136.995 Y114.921 E0.05871
G1 X135.713 Y116.291 E0.05882
G1 X134.864 Y117.040 E0.03549
G1 X133.349 Y118.137 E0.05869
G1 X132.428 Y118.678 E0.03348
G1 X130.735 Y119.471 E0.05860
G1 X129.733 Y119.827 E0.03334
G1 X127.918 Y120.290 E0.05873
G1 X126.871 Y120.452 E0.03323
G1 X124.998 Y120.566 E0.05883
G1 X123.129 Y120.452 E0.05869
G1 X122.077 Y120.289 E0.03340
G1 X120.259 Y119.825 E0.05881
G1 X119.202 Y119.444 E0.03524
G1 X117.562 Y118.673 E0.05684
G1 X116.592 Y118.098 E0.03534
G1 X115.079 Y116.995 E0.05871
G1 X113.709 Y115.713 E0.05882
G1 X112.960 Y114.864 E0.03549
G1 X111.863 Y113.349 E0.05869
G1 X111.322 Y112.428 E0.03348
G1 X110.529 Y110.735 E0.05860
G1 X110.173 Y109.733 E0.03334
G1 X109.710 Y107.918 E0.05873
G1 X109.548 Y106.871 E0.03323
G1 X109.434 Y104.998 E0.05883
G1 X109.548 Y103.129 E0.05869
G1 X109.711 Y102.077 E0.03340
G1 X110.175 Y100.259 E0.05881
G1 X110.556 Y99.202 E0.03524
G1 X111.327 Y97.562 E0.05683
G1 X111.902 Y96.592 E0.03534
G1 X112.970 Y95.128 E0.05683
G1 X113.274 Y95.350 F10800.000
G1 F1200
G1 X114.553 Y93.976 E0.05885
G1 X115.367 Y93.258 E0.03404
G1 X116.856 Y92.179 E0.05763
G1 X117.744 Y91.658 E0.03228
G1 X119.406 Y90.879 E0.05756
G1 X121.156 Y90.307 E0.05774
G1 X122.155 Y90.080 E0.03210
G1 X123.978 Y89.847 E0.05763
G1 X125.004 Y89.811 E0.03220
G1 X126.835 Y89.924 E0.05752
G1 X127.850 Y90.081 E0.03222
G1 X129.635 Y90.537 E0.05775
G1 X130.649 Y90.902 E0.03380
G1 X132.266 Y91.663 E0.05603
G1 X133.196 Y92.214 E0.03388
G1 X134.682 Y93.297 E0.05767
G1 X136.024 Y94.553 E0.05763
G1 X136.742 Y95.367 E0.03404
G1 X137.821 Y96.856 E0.05763
G1 X138.342 Y97.744 E0.03228
G1 X139.120 Y99.403 E0.05745
G1 X139.465 Y100.372 E0.03227
G1 X139.920 Y102.155 E0.05768
G1 X140.076 Y103.165 E0.03205
G1 X140.189 Y105.001 E0.05766
G1 X140.076 Y106.835 E0.05763
G1 X139.919 Y107.850 E0.03222
G1 X139.463 Y109.635 E0.05775
G1 X139.098 Y110.649 E0.03380
G1 X138.337 Y112.266 E0.05603
G1 X137.786 Y113.196 E0.03388
G1 X136.703 Y114.682 E0.05767
G1 X135.447 Y116.024 E0.05763
G1 X134.633 Y116.742 E0.03404
G1 X133.144 Y117.821 E0.05763
G1 X132.256 Y118.342 E0.03228
G1 X130.597 Y119.120 E0.05745
G1 X129.628 Y119.465 E0.03227
G1 X127.845 Y119.920 E0.05768
G1 X126.835 Y120.076 E0.03205
G1 X124.999 Y120.189 E0.05766
G1 X123.165 Y120.076 E0.05763
G1 X122.150 Y119.919 E0.03222
G1 X120.365 Y119.463 E0.05775
G1 X119.351 Y119.098 E0.03380
G1 X117.734 Y118.337 E0.05603
G1 X116.804 Y117.786 E0.03388
G1 X115.318 Y116.703 E0.05767
G1 X113.976 Y115.447 E0.05763
G1 X113.258 Y114.633 E0.03404
G1 X112.179 Y113.144 E0.05763
G1 X111.658 Y112.256 E0.03228
G1 X110.880 Y110.597 E0.05745
G1 X110.535 Y109.628 E0.03227
G1 X110.080 Y107.845 E0.05768
G1 X109.924 Y106.835 E0.03205
G1 X109.811 Y104.999 E0.05766
G1 X109.924 Y103.165 E0.05763
G1 X110.081 Y102.150 E0.03222
G1 X110.537 Y100.365 E0.05775
G1 X110.902 Y99.351 E0.03380
G1 X111.663 Y97.734 E0.05603
G1 X112.214 Y96.804 E0.03388
G1 X113.239 Y95.398 E0.05456
G1 F8640
G1 X114.553 Y93.976 E-0.44717
G1 X115.367 Y93.258 E-0.25066
G1 X115.585 Y93.100 E-0.06218
G1 E-0.04000 F2100.00000
G1 Z0.800 F10800.000
G1 X115.429 Y97.097
G1 Z0.200
G1 E0.80000 F2100.00000
G1 F1200
G1 X115.952 Y96.503 E0.02480
G1 X116.503 Y95.952 E0.02445
G1 X117.088 Y95.436 E0.02445
G1 X117.704 Y94.958 E0.02445
G1 X118.349 Y94.520 E0.02445
G1 X119.020 Y94.123 E0.02445
G1 X119.715 Y93.769 E0.02445
G1 X120.431 Y93.459 E0.02445
G1 X121.164 Y93.195 E0.02445
G1 X121.913 Y92.977 E0.02445
G1 X122.674 Y92.807 E0.02445
G1 X123.444 Y92.685 E0.02445
G1 X124.219 Y92.612 E0.02440
G1 X125.080 Y92.590 E0.02701
G1 X125.779 Y92.612 E0.02194
G1 X126.556 Y92.685 E0.02445
G1 X127.326 Y92.807 E0.02445
G1 X128.087 Y92.977 E0.02445
G1 X128.836 Y93.195 E0.02445
G1 X129.569 Y93.459 E0.02445
G1 X130.285 Y93.769 E0.02445
G1 X130.980 Y94.123 E0.02445
G1 X131.651 Y94.520 E0.02445
G1 X132.296 Y94.958 E0.02445
G1 X132.912 Y95.436 E0.02445
G1 X133.497 Y95.952 E0.02445
G1 X134.048 Y96.503 E0.02445
G1 X134.564 Y97.088 E0.02445
G1 X135.042 Y97.704 E0.02445
G1 X135.480 Y98.349 E0.02445
G1 X135.877 Y99.020 E0.02445
G1 X136.231 Y99.715 E0.02445
G1 X136.541 Y100.431 E0.02445
G1 X136.805 Y101.164 E0.02445
G1 X137.023 Y101.913 E0.02445
G1 X137.193 Y102.674 E0.02445
G1 X137.315 Y103.444 E0.02445
G1 X137.388 Y104.221 E0.02445
G1 X137.413 Y105.000 E0.02445
G1 X137.388 Y105.779 E0.02445
G1 X137.315 Y106.556 E0.02445
G1 X137.193 Y107.326 E0.02445
G1 X137.023 Y108.087 E0.02445
G1 X136.805 Y108.836 E0.02445
G1 X136.541 Y109.569 E0.02445
G1 X136.231 Y110.285 E0.02445
G1 X135.877 Y110.980 E0.02445
G1 X135.480 Y111.651 E0.02445
G1 X135.042 Y112.296 E0.02445
G1 X134.564 Y112.912 E0.02445
G1 X134.048 Y113.497 E0.02445
G1 X133.497 Y114.048 E0.02445
G1 X132.912 Y114.564 E0.02445
G1 X132.296 Y115.042 E0.02445
G1 X131.651 Y115.480 E0.02445
G1 X130.980 Y115.877 E0.02445
G1 X130.285 Y116.231 E0.02445
G1 X129.569 Y116.541 E0.02445
G1 X128.836 Y116.805 E0.02445
G1 X128.087 Y117.023 E0.02445
G1 X127.326 Y117.193 E0.02445
G1 X126.556 Y117.315 E0.02445
G1 X125.779 Y117.388 E0.02445
G1 X125.000 Y117.413 E0.02445
G1 X124.221 Y117.388 E0.02445
G1 X123.444 Y117.315 E0.02445
G1 X122.674 Y117.193 E0.02445
G1 X121.913 Y117.023 E0.02445
G1 X121.164 Y116.805 E0.02445
G1 X120.431 Y116.541 E0.02445
G1 X119.715 Y116.231 E0.02445
G1 X119.020 Y115.877 E0.02445
G1 X118.349 Y115.480 E0.02445
G1 X117.704 Y115.042 E0.02445
G1 X117.088 Y114.564 E0.02445
G1 X116.503 Y114.048 E0.02445
G1 X115.952 Y113.497 E0.02445
G1 X115.436 Y112.912 E0.02445
G1 X114.958 Y112.296 E0.02445
G1 X114.520 Y111.651 E0.02445
G1 X114.123 Y110.980 E0.02445
G1 X113.769 Y110.285 E0.02445
G1 X113.459 Y109.569 E0.02445
G1 X113.195 Y108.836 E0.02445
G1 X112.977 Y108.087 E0.02445
G1 X112.807 Y107.326 E0.02445
G1 X112.685 Y106.556 E0.02445
G1 X112.612 Y105.779 E0.02445
G1 X112.587 Y105.000 E0.02445
G1 X112.612 Y104.221 E0.02445
G1 X112.685 Y103.444 E0.02445
G1 X112.807 Y102.674 E0.02445
G1 X112.977 Y101.913 E0.02445
G1 X113.195 Y101.164 E0.02445
G1 X113.459 Y100.431 E0.02445
G1 X113.769 Y99.715 E0.02445
G1 X114.123 Y99.020 E0.02445
G1 X114.520 Y98.349 E0.02445
G1 X114.958 Y97.704 E0.02445
G1 X115.392 Y97.144 E0.02222
G1 X115.094 Y96.913 F10800.000
G1 F1200
G1 X115.677 Y96.245 E0.02779
G1 X116.245 Y95.677 E0.02519
G1 X116.847 Y95.145 E0.02519
G1 X117.482 Y94.653 E0.02519
G1 X118.147 Y94.201 E0.02519
G1 X118.838 Y93.792 E0.02519
G1 X119.554 Y93.427 E0.02519
G1 X120.292 Y93.108 E0.02519
G1 X121.048 Y92.836 E0.02519
G1 X121.819 Y92.612 E0.02519
G1 X122.603 Y92.437 E0.02519
G1 X123.397 Y92.311 E0.02519
G1 X124.196 Y92.235 E0.02517
G1 X125.081 Y92.213 E0.02775
G1 X125.803 Y92.235 E0.02265
G1 X126.603 Y92.311 E0.02519
G1 X127.397 Y92.437 E0.02519
G1 X128.181 Y92.612 E0.02519
G1 X128.952 Y92.836 E0.02519
G1 X129.708 Y93.108 E0.02519
G1 X130.446 Y93.427 E0.02519
G1 X131.162 Y93.792 E0.02519
G1 X131.853 Y94.201 E0.02519
G1 X132.518 Y94.653 E0.02519
G1 X133.153 Y95.145 E0.02519
G1 X133.755 Y95.677 E0.02519
G1 X134.323 Y96.245 E0.02519
G1 X134.855 Y96.847 E0.02519
G1 X135.347 Y97.482 E0.02519
G1 X135.799 Y98.147 E0.02519
G1 X136.208 Y98.838 E0.02519
G1 X136.573 Y99.554 E0.02519
G1 X136.892 Y100.292 E0.02519
G1 X137.164 Y101.048 E0.02519
G1 X137.388 Y101.819 E0.02519
G1 X137.563 Y102.603 E0.02519
G1 X137.689 Y103.397 E0.02519
G1 X137.765 Y104.197 E0.02519
G1 X137.790 Y105.000 E0.02519
G1 X137.765 Y105.803 E0.02519
G1 X137.689 Y106.603 E0.02519
G1 X137.563 Y107.397 E0.02519
G1 X137.388 Y108.181 E0.02519
G1 X137.164 Y108.952 E0.02519
G1 X136.892 Y109.708 E0.02519
G1 X136.573 Y110.446 E0.02519
G1 X136.208 Y111.162 E0.02519
G1 X135.799 Y111.853 E0.02519
G1 X135.347 Y112.518 E0.02519
G1 X134.855 Y113.153 E0.02519
G1 X134.323 Y113.755 E0.02519
G1 X133.755 Y114.323 E0.02519
G1 X133.153 Y114.855 E0.02519
G1 X132.518 Y115.347 E0.02519
G1 X131.853 Y115.799 E0.02519
G1 X131.162 Y116.208 E0.02519
G1 X130.446 Y116.573 E0.02519
G1 X129.708 Y116.892 E0.02519
G1 X128.952 Y117.164 E0.02519
G1 X128.181 Y117.388 E0.02519
G1 X127.397 Y117.563 E0.02519
G1 X126.603 Y117.689 E0.02519
G1 X125.803 Y117.765 E0.02519
G1 X125.000 Y117.790 E0.02519
G1 X124.197 Y117.765 E0.02519
G1 X123.397 Y117.689 E0.02519
G1 X122.603 Y117.563 E0.02519
G1 X121.819 Y117.388 E0.02519
G1 X121.048 Y117.164 E0.02519
G1 X120.292 Y116.892 E0.02519
G1 X119.554 Y116.573 E0.02519
G1 X118.838 Y116.208 E0.02519
G1 X118.147 Y115.799 E0.02519
G1 X117.482 Y115.347 E0.02519
G1 X116.847 Y114.855 E0.02519
G1 X116.245 Y114.323 E0.02519
G1 X115.677 Y113.755 E0.02519
G1 X115.145 Y113.153 E0.02519
G1 X114.653 Y112.518 E0.02519
G1 X114.201 Y111.853 E0.02519
G1 X113.792 Y111.162 E0.02519
G1 X113.427 Y110.446 E0.02519
G1 X113.108 Y109.708 E0.02519
G1 X112.836 Y108.952 E0.02519
G1 X112.612 Y108.181 E0.02519
G1 X112.437 Y107.397 E0.02519
G1 X112.311 Y106.603 E0.02519
G1 X112.235 Y105.803 E0.02519
G1 X112.210 Y105.000 E0.02519
G1 X112.235 Y104.197 E0.02519
G1 X112.311 Y103.397 E0.02519
G1 X112.437 Y102.603 E0.02519
G1 X112.612 Y101.819 E0.02519
G1 X112.836 Y101.048 E0.02519
G1 X113.108 Y100.292 E0.02519
G1 X113.427 Y99.554 E0.02519
G1 X113.792 Y98.838 E0.02519
G1 X114.201 Y98.147 E0.02519
G1 X114.653 Y97.482 E0.02519
G1 X115.058 Y96.960 E0.02071
G1 X115.489 Y96.978 F10800.000
G1 F8640
G1 X115.677 Y96.245 E-0.21851
G1 X116.245 Y95.677 E-0.18553
G1 X116.847 Y95.145 E-0.18553
G1 X117.431 Y94.693 E-0.17043
G1 E-0.04000 F2100.00000
G1 Z0.800 F10800.000
G1 X113.648 Y109.720
G1 Z0.200
G1 E0.80000 F2100.00000
G1 F1200
G1 X119.954 Y116.027 E0.28093
G1 X120.535 Y116.278 E0.01994
G1 X120.857 Y116.394 E0.01078
G1 X113.606 Y109.143 E0.32301
G1 X113.464 Y108.748 E0.01322
G1 X113.348 Y108.349 E0.01309
G1 X121.651 Y116.652 E0.36987
G1 X122.369 Y116.835 E0.02336
G1 X113.165 Y107.631 E0.41004
G1 X113.037 Y106.966 E0.02131
G1 X123.034 Y116.963 E0.44535
G1 X123.657 Y117.051 E0.01982
G1 X112.949 Y106.343 E0.47701
G1 X112.894 Y105.752 E0.01870
G1 X124.248 Y117.106 E0.50579
G1 X124.801 Y117.123 E0.01743
G1 X112.877 Y105.199 E0.53121
G1 X112.881 Y104.667 E0.01674
G1 X125.333 Y117.119 E0.55471
G1 X125.847 Y117.098 E0.01621
G1 X112.902 Y104.153 E0.57665
G1 X112.949 Y103.664 E0.01549
G1 X126.336 Y117.051 E0.59640
G1 X126.809 Y116.988 E0.01502
G1 X113.012 Y103.191 E0.61465
G1 X113.085 Y102.729 E0.01475
G1 X127.271 Y116.915 E0.63198
G1 X127.709 Y116.817 E0.01414
G1 X113.183 Y102.291 E0.64714
G1 X113.287 Y101.860 E0.01397
G1 X128.140 Y116.713 E0.66168
G1 X128.556 Y116.592 E0.01362
G1 X113.408 Y101.444 E0.67480
G1 X113.540 Y101.041 E0.01338
G1 X128.959 Y116.460 E0.68691
G1 X129.353 Y116.318 E0.01319
G1 X113.682 Y100.647 E0.69814
G1 X113.838 Y100.267 E0.01293
G1 X129.733 Y116.162 E0.70810
G1 X130.107 Y116.000 E0.01284
G1 X114.000 Y99.893 E0.71755
G1 X114.178 Y99.535 E0.01259
G1 X130.465 Y115.822 E0.72557
G1 X130.820 Y115.642 E0.01255
G1 X114.358 Y99.180 E0.73332
G1 X114.556 Y98.842 E0.01233
G1 X131.158 Y115.444 E0.73956
G1 X131.494 Y115.245 E0.01232
G1 X114.755 Y98.506 E0.74569
G1 X114.972 Y98.187 E0.01215
G1 X131.813 Y115.028 E0.75026
G1 X132.132 Y114.811 E0.01215
G1 X115.189 Y97.868 E0.75480
G1 X115.423 Y97.566 E0.01203
G1 X132.434 Y114.577 E0.75782
G1 X132.736 Y114.343 E0.01203
G1 X115.657 Y97.264 E0.76081
G1 X115.908 Y96.980 E0.01196
G1 X133.020 Y114.092 E0.76231
G1 X133.305 Y113.841 E0.01196
G1 X116.159 Y96.695 E0.76381
G1 X116.427 Y96.427 E0.01193
G1 X133.573 Y113.573 E0.76381
G1 X133.841 Y113.305 E0.01193
G1 X116.695 Y96.159 E0.76381
G1 X116.980 Y95.908 E0.01196
G1 X134.092 Y113.020 E0.76231
G1 X134.343 Y112.736 E0.01196
G1 X117.264 Y95.657 E0.76081
G1 X117.566 Y95.423 E0.01203
G1 X134.577 Y112.434 E0.75782
G1 X134.811 Y112.132 E0.01203
G1 X117.868 Y95.189 E0.75480
M73 Q19 S4
G1 X118.186 Y94.972 E0.01215
G1 X135.028 Y111.814 E0.75026
M73 P19 R4
G1 X135.245 Y111.494 E0.01215
G1 X118.506 Y94.755 E0.74569
G1 X118.842 Y94.556 E0.01232
G1 X135.444 Y111.158 E0.73956
G1 X135.641 Y110.820 E0.01233
G1 X119.180 Y94.359 E0.73332
G1 X119.535 Y94.178 E0.01255
G1 X135.822 Y110.465 E0.72557
G1 X136.000 Y110.107 E0.01259
G1 X119.893 Y94.000 E0.71755
G1 X120.267 Y93.838 E0.01284
G1 X136.162 Y109.733 E0.70810
G1 X136.318 Y109.353 E0.01293
G1 X120.647 Y93.682 E0.69814
G1 X121.041 Y93.540 E0.01319
G1 X136.460 Y108.959 E0.68691
G1 X136.592 Y108.556 E0.01338
G1 X121.444 Y93.408 E0.67480
G1 X121.859 Y93.287 E0.01362
G1 X136.713 Y108.141 E0.66168
G1 X136.817 Y107.709 E0.01397
G1 X122.291 Y93.183 E0.64714
G1 X122.729 Y93.085 E0.01414
G1 X136.915 Y107.271 E0.63199
G1 X136.988 Y106.809 E0.01475
G1 X123.191 Y93.012 E0.61465
G1 X123.664 Y92.949 E0.01502
G1 X137.051 Y106.336 E0.59640
G1 X137.098 Y105.847 E0.01549
G1 X124.153 Y92.902 E0.57666
G1 X124.670 Y92.883 E0.01629
G1 X137.119 Y105.333 E0.55460
G1 X137.123 Y104.801 E0.01674
G1 X125.199 Y92.877 E0.53122
G1 X125.752 Y92.894 E0.01743
G1 X137.106 Y104.248 E0.50580
G1 X137.051 Y103.657 E0.01870
G1 X126.343 Y92.949 E0.47701
G1 X126.966 Y93.037 E0.01982
G1 X136.963 Y103.034 E0.44536
G1 X136.835 Y102.369 E0.02131
G1 X127.631 Y93.165 E0.41004
G1 X128.349 Y93.348 E0.02336
G1 X136.652 Y101.651 E0.36988
G1 X136.536 Y101.252 E0.01309
G1 X136.394 Y100.857 E0.01322
G1 X129.143 Y93.606 E0.32302
G1 X129.465 Y93.722 E0.01079
G1 X130.046 Y93.973 E0.01994
G1 X136.352 Y100.280 E0.28094
G1 F8640
G1 X134.025 Y97.952 E-0.76000
G1 E-0.04000 F2100.00000
G1 Z0.800 F10800.000
G1 X135.877 Y99.268
G1 Z0.200
G1 E0.80000 F2100.00000
G1 F1200
G1 X130.732 Y94.123 E0.22921
G1 F8640
G1 X133.059 Y96.451 E-0.76000
G1 E-0.04000 F2100.00000
G1 Z0.800 F10800.000
G1 X132.118 Y94.974
G1 Z0.200
G1 E0.80000 F2100.00000
G1 F1200
G1 X135.026 Y97.882 E0.12956
G1 F8640
G1 X132.699 Y95.555 E-0.76000
G1 E-0.04000 F2100.00000
G1 Z0.800 F10800.000
G1 X119.268 Y115.877
G1 Z0.200
G1 E0.80000 F2100.00000
G1 F1200
G1 X114.123 Y110.732 E0.22920
G1 F8640
